X:731
T:The maid at the well
R:Jig
O:Ireland
B:O'Neill's 724
B:Ceol Rince 1 n13
S:1 O'Neill's 724
Z:1 Transcription:mvhplank, chords:Mike Long
S:2 Ceol Rince 1 n13, mostly
Z:2 Transcription, arrangement, chords:Mike Long
M:6/8
L:1/8
K:G
P:Arr. O'Neill's
A|\
"G"GED DED|"G"GEG "C"c2e|"G"dcB AGA|"G"BAG "C"E2A|\
"G"GED DED|"G"GEG "C"c2e|"G"dcB "D"AGA|"G"BGG G2:|
|:d|\
"G"gdd edd|"G"gdB "C"c2e|"G"dcB AGA|"G"BAG "C"E2d|\
"G"gdd edd|"G"gdB "C"c2e|"G"dcB "D"AGA|"G"BGG G2:|
P:Arr. 2
A|\
"G"GED DED|"C"GEG c2e|"G"dBG GAB|"D"AGE "C"E2A|\
"G"GED DED|"C"GEG c2e|"G"dBG GAB|"D"AGF "G"G2:|
d|\
"G"gdB GBd|"G"gdB "C"c2e|"G"dBG GAB|"D"AGE "C"E2d|\
"G"gdB GBd|"G"gdB "C"c2e|"G"dBG GAB|"D"AGF "G"G2d||
"G"gdd "C"edd|"G"gdB "C"c2e|"G"dBG GAB|"D"AGE "C"E2A|\
"G"GED DED|"C"GEG c2e|"G"dBG GAB|"D"AGF "G"G2|]
